ukui-icon-theme-default/scalable/mimetypes/text-markdown.svg

<?xml version="1.0" encoding="utf-8"?>
<!-- Generator: Adobe Illustrator 24.0.0, SVG Export Plug-In . SVG Version: 6.00 Build 0)  -->
<svg version="1.1" id="图层_1" xmlns="http://www.w3.org/2000/svg" xmlns:xlink="http://www.w3.org/1999/xlink" x="0px" y="0px"
	 viewBox="0 0 96 96" enable-background="new 0 0 96 96" xml:space="preserve">
<title>96</title>
<g id="markdown">
	<g id="_96">
		
			<linearGradient id="_48_1_" gradientUnits="userSpaceOnUse" x1="48" y1="64" x2="48" y2="-20" gradientTransform="matrix(1 0 0 1 0 26)">
			<stop  offset="0" style="stop-color:#168CCC"/>
			<stop  offset="1" style="stop-color:#34D7DA"/>
		</linearGradient>
		<path id="_48" fill="url(#_48_1_)" d="M82,69V15c0-5-4-9-9-9H23c-5,0-9,4-9,9v66c0,5,4,9,9,9h38L82,69z"/>
		
			<linearGradient id="SVGID_1_" gradientUnits="userSpaceOnUse" x1="63.6598" y1="46.9703" x2="70.4798" y2="52.6503" gradientTransform="matrix(1 0 0 1 0 26)">
			<stop  offset="0" style="stop-color:#FFFFFF;stop-opacity:0.4"/>
			<stop  offset="1" style="stop-color:#FFFFFF;stop-opacity:0.2"/>
		</linearGradient>
		<path fill="url(#SVGID_1_)" d="M67,69h15L61,90V75C61,71.7,63.7,69,67,69z"/>
		<path fill="#FFFFFF" d="M68,35v22H28V35H68 M68,31H28c-2.2,0-4,1.8-4,4v22c0,2.2,1.8,4,4,4h40c2.2,0,4-1.8,4-4V35
			C72,32.8,70.2,31,68,31z"/>
		<polygon fill="#FFFFFF" points="32,39 32,53 36,53 36,44 40,49 44,44 44,53 48,53 48,39 43,39 40,43 37,39 		"/>
		<rect x="56" y="39" fill="#FFFFFF" width="4" height="11"/>
		<polygon fill="#FFFFFF" points="52,47 64,47 58,53 		"/>
	</g>
</g>
</svg>

<svg xmlns="http://www.w3.org/2000/svg" xmlns:xlink="http://www.w3.org/1999/xlink" viewBox="0 0 96 96"><defs><style>.cls-1{fill:url(#未命名的渐变_7);}.cls-2{fill:url(#未命名的渐变_184);}.cls-3{fill:#fff;}</style><linearGradient id="未命名的渐变_7" x1="48" y1="32" x2="48" y2="116" gradientTransform="matrix(1, 0, 0, -1, 0, 122)" gradientUnits="userSpaceOnUse"><stop offset="0" stop-color="#168ccc"/><stop offset="1" stop-color="#34d7da"/></linearGradient><linearGradient id="未命名的渐变_184" x1="63.66" y1="49.03" x2="70.48" y2="43.35" gradientTransform="matrix(1, 0, 0, -1, 0, 122)" gradientUnits="userSpaceOnUse"><stop offset="0" stop-color="#fff" stop-opacity="0.4"/><stop offset="1" stop-color="#fff" stop-opacity="0.2"/></linearGradient></defs><title>96</title><g id="markdown"><g id="_96" data-name="96"><path id="_48" data-name=" 48" class="cls-1" d="M82,69V15a9,9,0,0,0-9-9H23a9,9,0,0,0-9,9V81a9,9,0,0,0,9,9H61Z"/><path class="cls-2" d="M67,69H82L61,90V75A6,6,0,0,1,67,69Z"/><path class="cls-3" d="M68,35V57H28V35H68m0-4H28a4,4,0,0,0-4,4V57a4,4,0,0,0,4,4H68a4,4,0,0,0,4-4V35a4,4,0,0,0-4-4Z"/><polygon class="cls-3" points="32 39 32 53 36 53 36 44 40 49 44 44 44 53 48 53 48 39 43 39 40 43 37 39 32 39"/><rect class="cls-3" x="56" y="39" width="4" height="11"/><polygon class="cls-3" points="52 47 64 47 58 53 52 47"/></g></g></svg>
